resources/icons/20px/backward-ten.svg

<svg width="20" height="20" viewBox="0 0 20 20" fill="none" xmlns="http://www.w3.org/2000/svg">
<path d="M9.75399 20C8.57934 20.0076 7.41587 19.7716 6.33699 19.307C5.30299 18.8638 4.36238 18.2286 3.56499 17.435C2.77141 16.6376 2.13619 15.697 1.69299 14.663C1.22837 13.5841 0.992403 12.4206 0.999994 11.246C0.999994 10.9707 1.09333 10.7397 1.27999 10.553C1.37022 10.4614 1.47827 10.3893 1.59747 10.3412C1.71667 10.293 1.84448 10.2698 1.97299 10.273C2.24833 10.273 2.47933 10.3663 2.66599 10.553C2.85266 10.7397 2.94599 10.9707 2.94599 11.246C2.94599 13.1427 3.60633 14.7517 4.92699 16.073C6.24766 17.3943 7.85666 18.055 9.75399 18.055C11.6513 18.055 13.26 17.3943 14.58 16.073C15.9 14.7517 16.5607 13.1427 16.562 11.246C16.5633 9.34933 15.9027 7.74066 14.58 6.41999C13.2573 5.09933 11.6487 4.43866 9.75399 4.43799H9.60799L10.434 5.26499C10.5259 5.35224 10.5984 5.45791 10.6466 5.57509C10.6949 5.69227 10.7178 5.81833 10.714 5.94499C10.706 6.20499 10.6127 6.43199 10.434 6.62599C10.2517 6.81419 10.0029 6.92335 9.74099 6.92999C9.61217 6.9357 9.48362 6.91364 9.36405 6.86534C9.24449 6.81703 9.1367 6.74359 9.04799 6.64999L6.54399 4.14699C6.45138 4.05967 6.37767 3.95426 6.32744 3.83729C6.27722 3.72032 6.25154 3.59429 6.25199 3.46699C6.25199 3.20699 6.34933 2.97999 6.54399 2.78599L9.04799 0.279995C9.1367 0.1864 9.24449 0.112962 9.36405 0.0646537C9.48362 0.0163451 9.61217 -0.00570563 9.74099 -5.17338e-06C10.009 0.00866149 10.24 0.109995 10.434 0.303995C10.6127 0.499328 10.706 0.726328 10.714 0.984995C10.718 1.11183 10.6951 1.23807 10.6468 1.35544C10.5986 1.4728 10.526 1.57864 10.434 1.66599L9.60799 2.49299H9.75399C10.9693 2.49299 12.108 2.72399 13.17 3.18599C14.204 3.62919 15.1446 4.26441 15.942 5.05799C16.7356 5.85538 17.3708 6.79599 17.814 7.82999C18.276 8.89199 18.507 10.0307 18.507 11.246C18.5146 12.4206 18.2786 13.5841 17.814 14.663C17.3708 15.697 16.7356 16.6376 15.942 17.435C15.1446 18.2286 14.204 18.8638 13.17 19.307C12.0914 19.7715 10.9283 20.0074 9.75399 20Z" fill="black"/>
<path d="M11.5 9.5V12.5H12.5V9.5H11.5ZM11 8H13C13.2652 8 13.5196 8.10535 13.7071 8.29289C13.8946 8.48043 14 8.73478 14 9V13C14 13.2652 13.8946 13.5196 13.7071 13.7071C13.5196 13.8946 13.2652 14 13 14H11C10.7348 14 10.4804 13.8946 10.2929 13.7071C10.1054 13.5196 9.99999 13.2652 9.99999 13V9C9.99999 8.73478 10.1054 8.48043 10.2929 8.29289C10.4804 8.10535 10.7348 8 11 8ZM8.99999 9V13.25C8.99999 13.4489 8.92098 13.6397 8.78032 13.7803C8.63967 13.921 8.44891 14 8.24999 14C8.05108 14 7.86032 13.921 7.71966 13.7803C7.57901 13.6397 7.49999 13.4489 7.49999 13.25V9.5H6.74999C6.55108 9.5 6.36032 9.42098 6.21966 9.28032C6.07901 9.13967 5.99999 8.94891 5.99999 8.75C5.99999 8.55108 6.07901 8.36032 6.21966 8.21967C6.36032 8.07901 6.55108 8 6.74999 8H7.99999C8.26521 8 8.51956 8.10535 8.7071 8.29289C8.89464 8.48043 8.99999 8.73478 8.99999 9Z" fill="black"/>
</svg>

<svg xmlns="http://www.w3.org/2000/svg" viewBox="0 0 20 20">
  <path d="M9.754 20a8.5 8.5 0 0 1-3.417-.693 8.9 8.9 0 0 1-2.772-1.872 8.9 8.9 0 0 1-1.872-2.772A8.5 8.5 0 0 1 1 11.246q0-.413.28-.693a.94.94 0 0 1 .693-.28q.413 0 .693.28t.28.693q0 2.845 1.981 4.827 1.98 1.982 4.827 1.982t4.826-1.982 1.982-4.827q.001-2.845-1.982-4.826-1.984-1.98-4.826-1.982h-.146l.826.827a.9.9 0 0 1 .28.68q-.012.39-.28.681a1 1 0 0 1-1.07.24.9.9 0 0 1-.316-.216L6.544 4.147a.93.93 0 0 1-.292-.68q0-.39.292-.681L9.048.28A.9.9 0 0 1 9.741 0a.994.994 0 0 1 .973.985.9.9 0 0 1-.28.681l-.826.827h.146a8.5 8.5 0 0 1 3.416.693 8.9 8.9 0 0 1 2.772 1.872 8.9 8.9 0 0 1 1.872 2.772 8.5 8.5 0 0 1 .693 3.416 8.5 8.5 0 0 1-.693 3.417 8.9 8.9 0 0 1-1.872 2.772 8.9 8.9 0 0 1-2.772 1.872A8.5 8.5 0 0 1 9.754 20"/>
  <path d="M11.5 9.5v3h1v-3zM11 8h2a1 1 0 0 1 1 1v4a1 1 0 0 1-1 1h-2a1 1 0 0 1-1-1V9a1 1 0 0 1 1-1M9 9v4.25a.75.75 0 1 1-1.5 0V9.5h-.75a.75.75 0 0 1 0-1.5H8a1 1 0 0 1 1 1"/>
</svg>
